src/assets/icons/bookmark.svg

<svg width="24" height="24" viewBox="0 0 24 24" fill="none" xmlns="http://www.w3.org/2000/svg">
<path d="M4.9972 21.2499H4.99696C4.91804 21.2499 4.86597 21.2156 4.84061 21.1813C4.79355 21.1175 4.75 21.0185 4.75 20.8638V3.69774C4.75 3.2668 5.21468 2.75 5.8818 2.75H18.1849C18.8157 2.75 19.25 3.23343 19.25 3.69774V20.8639C19.25 21.1034 19.1815 21.1879 19.1626 21.2076C19.1408 21.2303 19.1058 21.25 19.0466 21.25C18.9832 21.25 18.8607 21.2254 18.6658 21.0684L18.6651 21.0679L13.1799 16.6616C12.8548 16.3997 12.4369 16.2799 12.0414 16.2799C11.6469 16.2799 11.2286 16.3991 10.9037 16.6605C10.9034 16.6607 10.9031 16.661 10.9028 16.6612L5.40009 21.0679L5.39836 21.0693C5.21683 21.2155 5.0733 21.2499 4.9972 21.2499Z" stroke="white" stroke-width="1.5"/>
</svg>

<svg xmlns="http://www.w3.org/2000/svg" width="24" height="24" fill="none"><path stroke="#fff" stroke-width="1.5" d="M4.997 21.25c-.079 0-.131-.034-.156-.069a.517.517 0 0 1-.091-.317V3.698c0-.431.465-.948 1.132-.948h12.303c.63 0 1.065.483 1.065.948v17.166c0 .24-.069.324-.087.344-.022.022-.057.042-.116.042-.064 0-.186-.025-.381-.182l-5.486-4.406a1.826 1.826 0 0 0-1.139-.382c-.394 0-.812.12-1.137.38l-.001.001L5.4 21.068l-.002.001c-.181.146-.325.18-.4.18Z"/></svg>
